X:1
T:Gentil coppia eccellente
T:Tiburtio Massaino
T:Gentil coppia eccellente
T:Seconda parte
C:Tiburtio Massaino
%%score [ 1 2 3 4 ]
L:1/8
Q:1/4=104
M:4/2
K:C
V:1 treble nm="Soprano" snm="S"
V:2 alto2 nm="Alto" snm="A"
V:3 alto nm="Tenor" snm="T"
V:4 tenor nm="Bass" snm="B"
V:1
 z16 | z2 d4 c4 d2 e2 d2 | ^c4 d4 z2 B2 A4 | c4 B2 d2 e4 A2 d2- | d2 c2 d2 A2 _B2 A4 G2 | %5
w: |Gen- til cop- pia ec- cel-|len- te, Gen- til|cop- pia ec- cel- len- te, Chi|_ vi mi- ra et a- scol- *|
 A2 c4 B2 c4 A2 c2- | c2 d2 e4 e2 f2 g4 | c4 d4 e4 d4 | B2 c2 A4 G4 d4 | e4 d4 c3 B A4 | G8 z8 | %11
w: ta, Chi vi mi- ra, Chi|_ vi mi- ra et a- scol-|ta, So- la- men-|te u- na vol- ta, So-|la- men- te u- na vol-|ta,|
 z16 | g4 a4 g4 e2 f2 | d4 c4 z2 d4 e2 | e2 AB cA d3 ^c c2 d2 e2- | e2 A2 c2 c4 f2 e4 | %16
w: |So- la- men- te u- na|vol- ta, Et non|mor di _ _ pia- ce- * * re, Et|_ non mor di pia- ce-|
 d2 d4 d2 d8 | d8 z2 G2 G3 A | B2 B2 c4 B4 z2 G2 | B3 c d2 d2 G3 ABG d2- | dc c4 B2 c4 z2 e2- | %21
w: re, di pia- ce-|re, Puo gir se-|cu- ra- men- te, Puo|gir se- cu- ra- men- * * * *|* * * * te, A|
 e2 e2 e4 c2 d2 e4 | d4 z2 e4 e2 e4 | c2 d2 e4 d4 B3 B | e4 A3 B c8 | _B4 A4 B4 A3 =B | %26
w: _ u- dir e ve- de-|re, A u- dir|e ve- de- re, Le Si-|re ne d'A- mor,|Le Si- re ne d'A-|
 c8 z2 G2 A2 B2 | c4 B2 G2 G2 G2 ^F4 | G4 z2 e2 c2 c2 d4 | e4 z2 e2 e3 d c4 | B8 z2 G2 G3 A | %31
w: mor, e i Ba- si-|li- schi, e i Ba- si- li-|schi, e i Ba- si- li-|schi, e i Ba- si- li-|schi, Puo gir se-|
 B2 B2 c4 B4 z2 G2 | B3 c d2 d2 G3 ABG d2- | dc c4 B2 c4 z2 e2- | e2 e2 e4 c2 d2 e4 | %35
w: cu- ra- men- te, Puo|gir se- cu- ra- men- * * * *|* * * * te, A|_ u- dir e ve- de-|
 d4 z2 e4 e2 e4 | c2 d2 e4 d4 B3 B | e4 A3 B c8 | _B4 A4 B4 A3 =B | c8 z2 G2 A2 B2 | %40
w: re, A u- dir|e ve- de- re, Le Si-|re ne d'A- mor,|Le Si- re ne d'A-|mor, e i Ba- si-|
 c4 B2 G2 G2 G2 ^F4 | G4 z2 e2 c2 c2 d4 | e4 z2 e2 e3 d c4 | B16 |] %44
w: li- schi, e i Ba- si- li-|schi, e i Ba- si- li-|schi, e i Ba- si- li-|schi.|
V:2
 z16 | G4 A4 F4 G3 F | E4 D4 z2 G2 E4 | A4 G6 E2 F4 | E4 z2 D4 C2 D4 | E2 A2 ^G4 A4 z4 | z8 z4 G4 | %7
w: |Gen- til cop- pia ec- cel-|len- te, Gen- til|cop- pia ec- cel- len-|te, Chi vi mi-|ra et a- scol- ta,|So-|
 A4 _B4 G2 A2 F4 | E4 z4 z2 G2 A2 F2 | G2 A2 _B4 A4 z4 | z4 D2 E2 C4 D2 B,2 | C4 G,4 G4 A4 | %12
w: la- men- te u- na vol-|ta, So- la- men-|te u- na vol- ta,|So- la- men- te u- na|vol- ta, So- la-|
 _B4 A2 A2 c6 A2 | _B4 A4 z2 A4 c2 | c4 A2 _B2 A4 A2 A2- | A2 F2 G2 A4 A2 A4 | A2 F4 _B2 A8 | %17
w: men- te u- na vol- *|* ta, Et non|mor di pia- ce- re, Et|_ non mor di pia- ce-|re, di pia- ce-|
 G8 z4 z2 G2 | G3 F E2 E2 D4 C4 | z2 G2 G3 F E2 E2 D4 | A2 G4 G2 G8- | G4 A2 G2 F4 E4 | %22
w: re, Puo|gir se- cu- ra- men- te,|Puo gir se- cu- ra- men-|te, A u- dir|_ e ve- de- re,|
 G6 G2 G4 A2 G2 | F4 E4 z2 D4 E2 | C4 D4 C3 C G4 | D3 E F4 z2 D4 F2 | E4 E3 F G4 z2 G2 | %27
w: A u- dir e ve-|de- re, e ve-|de- re, Le Si- re|ne d'A- mor, Le Si-|re ne d'A- mor, e i|
 C4 D2 E4 D2 z2 D2 | D4 E4 G8 | G2 C2 E3 F G8 | G8 z4 z2 G2 | G3 F E2 E2 D4 C4 | %32
w: Ba- si- li- schi, e i|Ba- si- li-|schi, e i Ba- si- li-|schi, Puo|gir se- cu- ra- men- te,|
 z2 G2 G3 F E2 E2 D4 | A2 G4 G2 G8- | G4 A2 G2 F4 E4 | G6 G2 G4 A2 G2 | F4 E4 z2 D4 E2 | %37
w: Puo gir se- cu- ra- men-|te, A u- dir|_ e ve- de- re,|A u- dir e ve-|de- re, e ve-|
 C4 D4 C3 C G4 | D3 E F4 z2 D4 F2 | E4 E3 F G4 z2 G2 | C4 D2 E4 D2 z2 D2 | D4 E4 G8 | %42
w: de- re, Le Si- re|ne d'A- mor, Le Si-|re ne d'A- mor, e i|Ba- si- li- schi, e i|Ba- si- li-|
 G2 C2 E3 F G8 | G16 |] %44
w: schi, e i Ba- si- li-|schi.|
V:3
 z16 | z16 | z8 z2 D4 C2- | C2 D2 E2 D2 ^C4 D2 A2- | AA A2 F4 G2 F3 E D2 | C2 E4 E2 E4 F2 G2 | %6
w: ||Gen- til|_ cop- pia ec- cel- len- te, Chi|_ vi mi- ra et a- scol- * *|ta, Chi vi mi- ra et a-|
 A4 G2 G4 F2 E4 | E4 z4 z4 D4 | E2 C3 C D2 E4 A,4 | z4 G,4 A,4 F,G,A,B, | C4 B,2 C2 A,4 G,4 | %11
w: scol- ta, et a- scol-|ta, So-|la- men- te u- na vol- ta,|So- la- men- * * *|* te u- na vol- ta,|
 z4 z2 D4 E2 C4 | D2 E2 F4 E4 z2 D2- | D2 E2 F4 E2 F4 A2 | G2 F2 C2 GFED E2 D2 ^C2- | %15
w: So- la- men-|te u- na vol- ta, u-|* na vol- ta, Et non|mor di pia- ce- * * * * re, Et|
 C2 D2 E2 A,B, =CA, D3 CCB,/C/ | D3 EFD G4 ^FE F4 | G4 z2 G2 G3 F E2 E2 | D4 C2 G2 G3 F E2 E2 | %19
w: _ non mor di _ _ pia- ce- * * * *||re, Puo gir se- cu- ra-|men- te, Puo gir se- cu- ra-|
 D4 D4 z4 G4 | F2 E2 D4 E4 C4- | C2 C2 C4 A,2 B,2 C4 | G,4 z4 z8 | z4 G6 G2 G4 | A2 G2 F4 E8 | %25
w: men- te, se-|cu- ra- men- te, A|_ u- dir e ve- de-|re,|A u- dir|e ve- de- re,|
 z4 D3 D G4 F3 G | A4 z2 G2 C2 E2 D4 | E4 z2 C2 C2 B,2 A,4 | G,2 G2 G3 F E4 D4 | z2 G2 G3 F E8 | %30
w: Le Si- re ne d'A-|mor, e i Ba- si- li-|schi, e i Ba- si- li-|schi, e i Ba- si- li- schi,|e i Ba- si- li-|
 D4 z2 G2 G3 F E2 E2 | D4 C2 G2 G3 F E2 E2 | D4 D4 z4 G4 | F2 E2 D4 E4 C4- | C2 C2 C4 A,2 B,2 C4 | %35
w: schi, Puo gir se- cu- ra-|men- te, Puo gir se- cu- ra-|men- te, se-|cu- ra- men- te, A|_ u- dir e ve- de-|
 G,4 z4 z8 | z4 G6 G2 G4 | A2 G2 F4 E8 | z4 D3 D G4 F3 G | A4 z2 G2 C2 E2 D4 | %40
w: re,|A u- dir|e ve- de- re,|Le Si- re ne d'A-|mor, e i Ba- si- li-|
 E4 z2 C2 C2 B,2 A,4 | G,2 G2 G3 F E4 D4 | z2 G2 G3 F E8 | D16 |] %44
w: schi, e i Ba- si- li-|schi, e i Ba- si- li- schi,|e i Ba- si- li-|schi.|
V:4
 z16 | z16 | z8 G,4 A,4 | F,4 G,3 F, E,4 D,4 | A,2 A,2 D4 G,2 A,2 _B,4 | A,4 E,2 E,2 A,4 D,2 E,2 | %6
w: ||Gen- til|cop- pia ec- cel- len- te,|Chi vi mi- ra et a- scol-|ta, Chi vi mi- ra et a-|
 F,4 E,4 C6 B,2 | A,4 G,4 z8 | G,2 A,2 F,4 E,2 E,2 D,4 | C,4 z4 z8 | z8 z4 D4 | E4 D4 B,2 C2 A,4 | %12
w: scol- ta, et a-|scol- ta,|So- la- men- te u- na vol-|ta,|So-|la- men- te u- na vol-|
 G,4 z4 z8 | z8 z2 D4 A,2 | C2 F,4 G,2 A,4 D,2 A,2- | A,2 D2 C2 F,4 D,2 A,4 | D,2 _B,4 G,2 D8 | %17
w: ta,|Et non|mor di pia- ce- re, Et|_ non mor di pia- ce-|re, di pia- ce-|
 G,2 G,2 G,3 A, B,2 B,2 C4 | G,2 G,2 A,2 C2 G,4 C,2 C,2 | G,3 A, B,2 B,2 C4 G,2 G,2 | %20
w: re, Puo gir se- cu- ra- men-|te, se- cu- ra- men- te, Puo|gir se- cu- ra- men- te, se-|
 A,2 C2 G,4 C,8- | C,8 z8 | z4 C6 C2 C4 | A,2 B,2 C4 G,8 | z4 D,3 D, A,4 E,3 F, | %25
w: cu- ra- men- te,|_|A u- dir|e ve- de- re,|Le Si- re ne d'A-|
 G,4 z4 G,3 G, D4 | A,3 B, C4 z2 C2 C2 B,2 | A,4 G,2 C,2 E,2 G,2 D,4 | G,4 C4 C4 B,4 | C16 | %30
w: mor, Le Si- re|ne d'A- mor, e i Ba- si-|li- schi, e i Ba- si- li-|schi, e i Ba- si-|li-|
 G,2 G,2 G,3 A, B,2 B,2 C4 | G,2 G,2 A,2 C2 G,4 C,2 C,2 | G,3 A, B,2 B,2 C4 G,2 G,2 | %33
w: schi, Puo gir se- cu- ra- men-|te, se- cu- ra- men- te, Puo|gir se- cu- ra- men- te, se-|
 A,2 C2 G,4 C,8- | C,8 z8 | z4 C6 C2 C4 | A,2 B,2 C4 G,8 | z4 D,3 D, A,4 E,3 F, | %38
w: cu- ra- men- te,|_|A u- dir|e ve- de- re,|Le Si- re ne d'A-|
 G,4 z4 G,3 G, D4 | A,3 B, C4 z2 C2 C2 B,2 | A,4 G,2 C,2 E,2 G,2 D,4 | G,4 C4 C4 B,4 | C16 | %43
w: mor, Le Si- re|ne d'A- mor, e i Ba- si-|li- schi, e i Ba- si- li-|schi, e i Ba- si-|li-|
 G,16 |] %44
w: schi.|

